icons/mobile/24/svg/cookies-24.svg

<svg width="24" height="24" viewBox="0 0 24 24" fill="none" xmlns="http://www.w3.org/2000/svg">
<path d="M14.25 14.5C14.9404 14.5 15.5 15.0596 15.5 15.75C15.5 16.4404 14.9404 17 14.25 17C13.5596 17 13 16.4404 13 15.75C13 15.0596 13.5596 14.5 14.25 14.5Z" fill="black"/>
<path d="M8.5 12.25C9.32843 12.25 10 12.9216 10 13.75C10 14.5784 9.32843 15.25 8.5 15.25C7.67157 15.25 7 14.5784 7 13.75C7 12.9216 7.67157 12.25 8.5 12.25Z" fill="black"/>
<path d="M10.75 7C11.4404 7 12 7.55964 12 8.25C12 8.94036 11.4404 9.5 10.75 9.5C10.0596 9.5 9.5 8.94036 9.5 8.25C9.5 7.55964 10.0596 7 10.75 7Z" fill="black"/>
<path fill-rule="evenodd" clip-rule="evenodd" d="M12.0029 2.00098C12.6061 2.00098 13.1881 2.06309 13.7451 2.16113C14.1746 2.23696 14.4831 2.61778 14.4678 3.05371C14.4661 3.10098 14.4616 3.14157 14.458 3.1709C14.4561 3.18692 14.4529 3.20283 14.4512 3.21484C14.4633 5.12252 15.8667 6.70268 17.6982 6.98828C17.9703 7.02987 18.2095 7.19804 18.3398 7.44629L18.6934 8.12012C18.8292 8.37867 18.8269 8.6877 18.6875 8.94434C18.395 9.48281 18.2266 10.0916 18.2266 10.7412C18.2267 12.4186 19.3116 13.8369 20.8281 14.3584C21.0513 14.4351 21.2342 14.5991 21.335 14.8125C21.4357 15.0259 21.4458 15.2711 21.3633 15.4922C19.9463 19.2872 16.2977 22 12.002 22C6.47871 22 2.00197 17.5232 2.00195 12C2.00195 6.47679 6.47866 1.99999 12.0029 2.00098ZM12.0029 3.75098C7.44529 3.75007 3.75195 7.44328 3.75195 12C3.75197 16.5567 7.44521 20.25 12.002 20.25C15.2496 20.25 18.053 18.3676 19.3975 15.6328C17.6646 14.6892 16.4766 12.8649 16.4766 10.7412C16.4766 9.98196 16.6355 9.26381 16.9111 8.61035C14.6781 8.04116 12.9822 6.13102 12.7334 3.78711C12.6106 3.77521 12.4875 3.7659 12.3643 3.75977L12.0029 3.75098Z" fill="black"/>
</svg>

<!-- This Source Code Form is subject to the terms of the Mozilla Public
   - License, v. 2.0. If a copy of the MPL was not distributed with this
   - file, You can obtain one at http://mozilla.org/MPL/2.0/. -->
<svg xmlns="http://www.w3.org/2000/svg" width="24" height="24" fill="none" viewBox="0 0 24 24">
    <path fill="#000" d="M14.25 14.5a1.25 1.25 0 1 1 0 2.5 1.25 1.25 0 0 1 0-2.5M8.5 12.25a1.5 1.5 0 1 1 0 3 1.5 1.5 0 0 1 0-3M10.75 7a1.25 1.25 0 1 1 0 2.5 1.25 1.25 0 0 1 0-2.5" />
    <path fill="#000" fill-rule="evenodd" d="M12.003 2.001c.603 0 1.185.062 1.742.16a.876.876 0 0 1 .713 1.01l-.007.044a3.846 3.846 0 0 0 3.247 3.773c.272.042.511.21.642.458l.353.674a.87.87 0 0 1-.006.824 3.75 3.75 0 0 0-.46 1.797c0 1.678 1.085 3.096 2.601 3.617a.876.876 0 0 1 .535 1.134C19.946 19.287 16.298 22 12.002 22c-5.523 0-10-4.477-10-10s4.477-10 10-9.999m0 1.75a8.25 8.25 0 1 0 0 16.499 8.24 8.24 0 0 0 7.395-4.617c-1.733-.944-2.921-2.768-2.921-4.892 0-.759.159-1.477.434-2.13a5.6 5.6 0 0 1-4.178-4.824 8 8 0 0 0-.369-.027z" clip-rule="evenodd" />
</svg>
